icons/inbox-star-outline.svg

<svg xmlns="http://www.w3.org/2000/svg" width="24" height="24" viewBox="0 0 24 24">
  <path d="M19,2 C20.5976809,2 21.9036609,3.24891996 21.9949073,4.82372721 L22,5 L22,19 C22,20.5976809 20.75108,21.9036609 19.1762728,21.9949073 L19,22 L5,22 C3.40231912,22 2.09633912,20.75108 2.00509269,19.1762728 L2,19 L2,5 C2,3.40231912 3.24891996,2.09633912 4.82372721,2.00509269 L5,2 L19,2 Z M19,4 L5,4 C4.48716416,4 4.06449284,4.38604019 4.00672773,4.88337887 L4,5 L4,14 L6,14 C7.1045695,14 8,14.8954305 8,16 C8,17.1045695 8.8954305,18 10,18 L14,18 C15.1045695,18 16,17.1045695 16,16 C16,14.8954305 16.8954305,14 18,14 L20,14 L20,5 C20,4.48716416 19.6139598,4.06449284 19.1166211,4.00672773 L19,4 Z M12.2212829,6.18140769 C12.3198892,6.23007281 12.3997029,6.30988657 12.448368,6.40849288 L13.3225168,8.17971176 L15.2771729,8.46373992 C15.5504453,8.50344873 15.7397861,8.75717015 15.7000773,9.03044258 C15.684265,9.1392611 15.6330214,9.23983231 15.5542796,9.31658661 L14.1398772,10.6952882 L14.4737723,12.6420462 C14.5204528,12.9142144 14.3376589,13.1726924 14.0654907,13.2193729 C13.9571118,13.2379613 13.8456278,13.220304 13.7482976,13.1691344 L12,12.25 L10.2517024,13.1691344 C10.0072801,13.2976348 9.70496657,13.2036616 9.57646617,12.9592393 C9.52529663,12.861909 9.50763929,12.750425 9.52622772,12.6420462 L9.86012284,10.6952882 L8.4457204,9.31658661 C8.24797861,9.123836 8.24393246,8.80727937 8.43668307,8.60953758 C8.51343737,8.53079576 8.61400857,8.47955217 8.72282709,8.46373992 L10.6774832,8.17971176 L11.551632,6.40849288 C11.6738431,6.16086605 11.973656,6.05919655 12.2212829,6.18140769 Z"/>
</svg>

<svg xmlns="http://www.w3.org/2000/svg" viewBox="0 0 24 24">
  <path d="M19 2a3 3 0 0 1 3 2.82V19a3 3 0 0 1-2.82 3H5a3 3 0 0 1-3-2.82V5a3 3 0 0 1 2.82-3H19zm0 2H5a1 1 0 0 0-1 .88V14h2a2 2 0 0 1 2 2c0 1.1.9 2 2 2h4a2 2 0 0 0 2-2c0-1.1.9-2 2-2h2V5a1 1 0 0 0-.88-1H19zm-6.78 2.18c.1.05.18.13.23.23l.87 1.77 1.96.28a.5.5 0 0 1 .27.86l-1.41 1.38.33 1.94a.5.5 0 0 1-.72.53L12 12.25l-1.75.92a.5.5 0 0 1-.72-.53l.33-1.94-1.41-1.38a.5.5 0 0 1 .27-.86l1.96-.28.87-1.77a.5.5 0 0 1 .67-.23z"/>
</svg>
